!!!!SEGMENT: pl-wtm--r-1539--004_stefani-jozef--msza-no-1-credo.krn
!!!cenid: 18xx:1764
!!!COM: Stefani, Józef
!!!COM-rismid: pe30024097
!!!CDT: 1800/04/16-1876/03/19
!!!CNT: Polish
!!!OPR: Msza No 1
!!!OTL: Credo
!!!OMV: 004
!!!PDT:
!!!AGN: Sacred; Mass
!!!SMS-siglum: PL-Wtm
!!!SMS-shelfmark: R 1539
!!!SMS-shelfwork: 001-004 M
!!!SMS-variant:
!!!SMS-altvar:
!!!NIFC-rismid: 1001120484
!!!URL-scan: http://repozytorium.nifc.pl/skany/pl-wtm-nut--r1539
!!!ONB-nifc: UWAGA: części Mszy: 1. Kyrie, 2. Gloria, 3. Graduale, 4. Credo, 5. Offertorium, 6. Sanctus, 7. Benedictus, 8. Agnus Dei. Uwaga: niektóre części razem z „przygrywkami”
**kern	**kern	**kern	**text	**text	**text	**dynam	**kern	**kern	**text	**dynam
*part4	*part4	*part3	*part3	*part3	*part3	*part3	*part2	*part1	*part1	*part1
*staff5	*staff4	*staff3	*staff3	*staff3	*staff3	*	*staff2	*staff1	*staff1	*
*Iorgan	*Iempty	*Ibass	*	*	*	*	*Ialto	*Isoprn	*	*
*I"Organo	*	*I"Basso	*	*	*	*	*I"Alto	*I"Soprano	*	*
*I'org	*	*I'B	*	*	*	*	*I'A	*I'S	*	*
*clefF4	*clefG2	*clefF4	*	*	*	*	*clefG2	*clefG2	*	*
*k[b-]	*k[b-]	*k[b-]	*	*	*	*	*k[b-]	*k[b-]	*	*
*F:	*F:	*F:	*	*	*	*	*F:	*F:	*	*
*M4/4	*M4/4	*M4/4	*	*	*	*	*M4/4	*M4/4	*	*
*met(c)	*met(c)	*met(c)	*	*	*	*	*met(c)	*met(c)	*	*
*>[A,A,B]	*	*	*	*	*	*	*	*	*	*
*>A	*	*	*	*	*	*	*	*	*	*
4F\ 4FF\	4f/ 4A/	4F\	1.) Wie-	2.) Że	3.) Ten	.	4A/	4f/	Wie-	.
=1	=1	=1	=1	=1	=1	=1	=1	=1	=1	=1
*	*^	*	*	*	*	*	*	*	*	*
*2\right	*	*2\right	*	*	*	*	*	*	*	*	*
!	!	!	!	!	!	!	!	!	!LO:TX:rj:i:a:t=Adagio	!	!
2F\ 2FF\	[1f/	2A\	4.F\	-rze-	nie-	śmier-	.	4.A/	4.f/	-rze-	.
!	!	!	!	!	!	!	!	!	!	!	!LO:DY:a
.	.	.	8F\	-my	-śmier-	-cią	.	8A/	8f/	-my	<
4G\ 4GG\	.	4B-\	4G\	w Bo-	-tel-	swo-	.	4B-/	4f/	w Bo-	.
4A\ 4AA\	.	4c\	8A\	-ga	-ność	-ją	.	8c/	8f/	-ga	.
.	.	.	8A\	ie-	u	ród	.	8c/	8f/	ie-	[[
=2	=2	=2	=2	=2	=2	=2	=2	=2	=2	=2	=2
*	*	*	*2\right	*	*	*	*	*	*	*	*
!	!	!	!	!	!	!	!	!	!	!	!LO:DY:a
2B-\ 2BB-\	1f/_	2d\	2B-\	-dne-	Bo-	Ludz-	.	2d/	2f/	-dne-	>
2A\ 2AA\	.	2c\	4A\	-go	-ga	-ki	.	4c/	4f/	-go	.
.	.	.	4A\	na	nas	wy-	.	4c/	4f/	na	]]
=3	=3	=3	=3	=3	=3	=3	=3	=3	=3	=3	=3
2..G/ 2..GG/	(4f/]	2..B-\	(2..G\	wie-	cze-	-ba-	.	(>2..B-/	(>4f/	wie-	.
.	8e/L	.	.	.	.	.	.	.	8e/L	.	.
.	8d/J	.	.	.	.	.	.	.	8d/J	.	.
.	4.e/	.	.	.	.	.	.	.	4.e/	.	.
8F/ 8FF/	8f/	8A\	8F\)	.	.	.	.	8A/)	8f/)	.	.
*	*v	*v	*	*	*	*	*	*	*	*	*
=4	=4	=4	=4	=4	=4	=4	=4	=4	=4	=4
*^	*	*	*	*	*	*	*	*	*	*
4F/ 4FF/	4ryy	2.f/ 2.A/)	2F\	ki	-ka	-wił	.	2A/	2f/	ki	.
4C/	4C\	.	.	.	.	.	.	.	.	.	.
4AA/	4AA\	.	4r	.	.	.	.	4r	4r	.	.
4FF/	4FF\	[4a/ 4c/	4F\	Co	Dla	I	.	4c/	4a/	Co	.
!!LO:PB:g=original
=5	=5	=5	=5	=5	=5	=5	=5	=5	=5	=5	=5
*	*	*^	*	*	*	*	*	*	*	*	*
2EE/	2EE\	(4a]/	1c#X\	2E\	ka-	któ-	Krwią	.	2c#X/	(4a/	ka-	.
.	.	4b-/	.	.	.	.	.	.	.	4b-/)	.	.
2E/ 2EE/	2ryy	4a/	.	2E\	-rze	-rej	do	.	2c#/	(4a/	-rże	.
.	.	4g/	.	.	.	.	.	.	.	4g/)	.	.
*v	*v	*	*	*	*	*	*	*	*	*	*	*
=6	=6	=6	=6	=6	=6	=6	=6	=6	=6	=6	=6
2D/ 2DD/	4g/)	1d\	2D\	zbro-	czy-	nie-	.	2d/	(4g/	zbro-	.
.	2.f/	.	.	.	.	.	.	.	4f/)	.	.
2C/ 2CC/	.	.	4C/	-dnie	-niem	-ba	.	4d/	4f/	-dnie	.
.	.	.	4C/	a	na	o-	.	4d/	4f/	a	.
=7	=7	=7	=7	=7	=7	=7	=7	=7	=7	=7	=7
*^	*	*	*	*	*	*	*	*	*	*	*
!	!	!	!	!	!	!	!	!	!	!	!	!LO:DY:a
2BBn/	2BBBn\	2g/	[1d\	2BBn/	cno-	zie-	-zna-	.	2d/	2g/	cno-	<
2BB-X/	2BBB-X\	4f/	.	4BB-X/	-ty	-mi	-czył	.	4d/	4f/	-ty	.
.	.	4g/	.	4BB-/	na-	o-	nam	.	4d/	4g/	na-	[[
=8	=8	=8	=8	=8	=8	=8	=8	=8	=8	=8	=8	=8
!	!	!	!	!	!	!	!	!	!	!	!	!LO:DY:a
!	!	!	!	!	!	!	!	!	!	!	!	!LO:DY:a
[2AA/	2AA\	[2a/ [2e/	4d\]	2AA/	-gra-	-fia-	śla-	.	(>4d/	2a/	-gra-	f >
.	.	.	8c#X\L	.	.	.	.	.	8c#X/L	.	.	.
.	.	.	8Bn\J	.	.	.	.	.	8Bn/J)	.	.	.
4A\ 4AA;\]	2ryy	4a/] 4e/] 4c#;/	2ryy	4AA;/	-dza	-ry	-dy	.	4c#;/	4a;/	-dza	]
4A\ 4AA\	.	4a/ 4e/ 4c#/	.	4AA/	świat	Że	A	.	4c#/	4a/	świat	.
*v	*v	*	*	*	*	*	*	*	*	*	*	*
=9	=9	=9	=9	=9	=9	=9	=9	=9	=9	=9	=9
2B-X\ [>2BB-\	2a/	1d\	2.BB-/	ca-	Sy-	po	.	2d/	2a^>/	ca-	.
4BB-/]	4g/	.	.	.	.	.	.	2d/	(>4g/	-ły	.
4BBn/	4f/	.	4BBn/	-ły	-na	Bo-	.	.	4f/)	.	.
*	*v	*v	*	*	*	*	*	*	*	*	*
!!LO:LB:g=original
=10	=10	=10	=10	=10	=10	=10	=10	=10	=10	=10
*^	*	*	*	*	*	*	*	*	*	*
2C/	2C\	2e/ 2c/	2C/	z Je-	swe-	że-	.	2cn/	2e/	z Je-	.
4CC/	2CC\	2f/ 2d/	4C/	-go	-go	-mu	.	4d/	4f/	-go	.
!	!	!	!	!	!	!	!	!	!	!	!LO:DY:a
4C/	.	.	4C/	i-	chciał	na	.	4d/	4f/	i-	<
=11	=11	=11	=11	=11	=11	=11	=11	=11	=11	=11	=11
4CC/	1CC\	2g/ 2e/	2C/	-stnie-	w cie-	wie-	.	2e/	2g/	-stnie-	.
4C/	.	.	.	.	.	.	.	.	.	.	.
4CC/	.	2a/ 2f/	4C/	-ie	-lić	-ki	.	4f/	4a/	-ie	.
4C/	.	.	4C/	o-	w czło-	zo-	.	4f/	4a/	o-	[[
=12	=12	=12	=12	=12	=12	=12	=12	=12	=12	=12	=12
!	!	!	!	!	!	!	!LO:DY:rj:a	!	!	!	!LO:DY:rj:a
4CC/	4CC\	2b-/ 2g/	2C/	-pie-	-wie-	-sta-	f	2g/	2b-/	-pie-	f
2C/	2C\	.	.	.	.	.	.	.	.	.	.
.	.	2g/ 2e/	4C/	-ki	-k[a]	-wił	.	4e/	4g/	-ki	.
4BB-X/	4BB-X\	.	4BB-X/	w mi-	Co	Na-	.	4e/	4g/	w mi-	.
=13	=13	=13	=13	=13	=13	=13	=13	=13	=13	=13	=13
*	*	*^	*	*	*	*	*	*	*	*	*
2AA/	2AA\	2cc/	1f\ 1c\	2AA/	-ło-	nas	-u-	.	2f/	2cc^\	-ło-	.
2A\ 2AA\	2ryy	2f/	.	2A\	-ści	na-	-ki	.	2f/	2f^>/	-ści	.
*v	*v	*	*	*	*	*	*	*	*	*	*	*
*	*v	*v	*	*	*	*	*	*	*	*	*
=14	=14	=14	=14	=14	=14	=14	=14	=14	=14	=14
2B-\ 2BB-\	2dd/ 2f/ 2d/	2B-\	Je-	-u-	Swię-	.	2f/	2dd^\	Je-	.
2BB-/ 2BBB-/	4cc/ 4e/	4BB-/	-go	-czył	-te	.	4e/	4cc\	-go	.
.	4b-/ 4d/	4BB-/	i	mi-	i	.	4d/	4b-\	i	.
=15	=15	=15	=15	=15	=15	=15	=15	=15	=15	=15
1C/ 1CC/	2a/ 2c/	2C/	mą-	-ło-	świę-	.	2c/	2a/	mą-	.
.	4g/ 4B-/	4C/	-drość	-ści	-te	.	4B-/	4g/	-drość	.
.	4f/ 4A/	4C/	i	i	przy-	.	4A/	4f/	i	.
!!LO:PB:g=original
=16	=16	=16	=16	=16	=16	=16	=16	=16	=16	=16
*	*^	*	*	*	*	*	*	*	*	*
2..C/ 2..CC/	(4f/	2..B-\ 2..G\	(2..C/	wła-	wia-	kła-	.	2..B-/	(>4f/	wła-	.
.	8e/L	.	.	.	.	.	.	.	8e/L	.	.
.	8d/J	.	.	.	.	.	.	.	8d/J	.	.
.	4.e/	.	.	.	.	.	.	.	4.e/	.	.
8F/ 8FF/	8f/	8A\	8F\)	.	.	.	.	8A/	8f/)	.	.
=17	=17	=17	=17	=17	=17	=17	=17	=17	=17	=17	=17
2.F/ 2.FF/	2.f/)	2.A\	2.F\	-dza	-ry	-dy.	.	2.A/	2.f/	-dza.	.
*	*v	*v	*	*	*	*	*	*	*	*	*
=18:|!	=18:|!	=18:|!	=18:|!	=18:|!	=18:|!	=18:|!	=18:|!	=18:|!	=18:|!	=18:|!
*>B	*	*	*	*	*	*	*	*	*	*
*k[bn]	*k[bn]	*	*	*	*	*	*	*	*	*
*M3/4	*M3/4	*	*	*	*	*	*	*	*	*
*	*^	*	*	*	*	*	*	*	*	*
4r	4ee/ 4cc/ 4g/	4e\ 4c\	4ryy	.	.	.	.	4ryy	4ryy	.	.
=19	=19	=19	=19	=19	=19	=19	=19	=19	=19	=19	=19
*	*	*^	*	*	*	*	*	*	*	*	*
2.r	4.dd/ 4.b/	2.g/	4.d\ 4.G\	2.ryy	.	.	.	.	2.ryy	2.ryy	.	.
.	8ee/ 8cc/	.	8e\ 8c\	.	.	.	.	.	.	.	.	.
.	8dd/L 8b/	.	8d\L 8G\	.	.	.	.	.	.	.	.	.
.	8ee/J 8cc/	.	8e\J 8c\	.	.	.	.	.	.	.	.	.
=20	=20	=20	=20	=20	=20	=20	=20	=20	=20	=20	=20	=20
2.r	8dd/L 8b/	2.g/	8d\L 8G\	2.ryy	.	.	.	.	2.ryy	2.ryy	.	.
.	8ee/ 8cc/	.	8e\ 8c\	.	.	.	.	.	.	.	.	.
.	8dd/ 8b/	.	8d\ 8G\	.	.	.	.	.	.	.	.	.
.	8ee/ 8cc/	.	8e\ 8c\	.	.	.	.	.	.	.	.	.
.	8dd/ 8b/	.	8d\ 8G\	.	.	.	.	.	.	.	.	.
.	8cc/J	.	8e\J 8c\	.	.	.	.	.	.	.	.	.
*	*v	*v	*v	*	*	*	*	*	*	*	*	*
!!LO:LB:g=original
=21	=21	=21	=21	=21	=21	=21	=21	=21	=21	=21
*^	*	*	*	*	*	*	*	*	*	*
4.d\	2.r	4.b/ 4.g/	2.ryy	.	.	.	.	2.ryy	2.ryy	.	.
8c\	.	8a/ 8f#X/ 8d/	.	.	.	.	.	.	.	.	.
8B\L	.	8g/L 8d/	.	.	.	.	.	.	.	.	.
8c\J	.	8a/J 8f#/ 8e-X/	.	.	.	.	.	.	.	.	.
=22	=22	=22	=22	=22	=22	=22	=22	=22	=22	=22	=22
8B\L	2.r	8g/L 8d/	2.ryy	.	.	.	.	2.ryy	2.ryy	.	.
8c\	.	8a/ 8f#X/ 8e-X/	.	.	.	.	.	.	.	.	.
8B\	.	8g/ 8d/	.	.	.	.	.	.	.	.	.
8c\	.	8a/ 8f#/ 8e-/	.	.	.	.	.	.	.	.	.
8B\	.	8g/ 8d/	.	.	.	.	.	.	.	.	.
8G\J	.	8fn/J 8d/	.	.	.	.	.	.	.	.	.
=23	=23	=23	=23	=23	=23	=23	=23	=23	=23	=23	=23
*	*	*^	*	*	*	*	*	*	*	*	*
[2A\	2.r	8en/L 8c/	4ryy	2.ryy	.	.	.	.	2.ryy	2.ryy	.	.
.	.	8d#X/ 8B/	.	.	.	.	.	.	.	.	.	.
.	.	8e/ 8c/	4ryy	.	.	.	.	.	.	.	.	.
.	.	8d#/ 8B/	.	.	.	.	.	.	.	.	.	.
8A\L]	.	8e/	4c\	.	.	.	.	.	.	.	.	.
8G\J	.	8cc/J	.	.	.	.	.	.	.	.	.	.
=24	=24	=24	=24	=24	=24	=24	=24	=24	=24	=24	=24	=24
8F\L	2.r	2d/	2c\ 2\A<	2.ryy	.	.	.	.	2.ryy	2.ryy	.	.
8E\	.	.	.	.	.	.	.	.	.	.	.	.
8F\	.	.	.	.	.	.	.	.	.	.	.	.
8E\	.	.	.	.	.	.	.	.	.	.	.	.
8F\	.	8d/L	4c\ 2A<\	.	.	.	.	.	.	.	.	.
8F#X\J	.	8a/J 8e-X/ 8c/	.	.	.	.	.	.	.	.	.	.
*	*	*v	*v	*	*	*	*	*	*	*	*	*
!!LO:LB:g=original
=25	=25	=25	=25	=25	=25	=25	=25	=25	=25	=25	=25
2G\	2.r	8.g/L 8.en/	2.ryy	.	.	.	.	2.ryy	2.ryy	.	.
.	.	16f/Jk 16d/	.	.	.	.	.	.	.	.	.
.	.	8e/L 8c/	.	.	.	.	.	.	.	.	.
.	.	8g/ 8e/	.	.	.	.	.	.	.	.	.
4G/ 4GG/	.	8f/ 8d/	.	.	.	.	.	.	.	.	.
.	.	8d/J 8B/	.	.	.	.	.	.	.	.	.
*v	*v	*	*	*	*	*	*	*	*	*	*
=26	=26	=26	=26	=26	=26	=26	=26	=26	=26	=26
[>2.E\ [2.EE\	4c/ 4G</ 4E</	2.ryy	.	.	.	.	2.ryy	2.ryy	.	.
.	8c/L 8G</ 8E</	.	.	.	.	.	.	.	.	.
.	8d-X/ 8A-X</ 8F</	.	.	.	.	.	.	.	.	.
.	8c/ 8G</ 8E</	.	.	.	.	.	.	.	.	.
.	8d-/J 8A-</ 8F</	.	.	.	.	.	.	.	.	.
=27	=27	=27	=27	=27	=27	=27	=27	=27	=27	=27
2.E\] 2.EE\]	8c/L 8G</ 8E</	2.ryy	.	.	.	.	2.ryy	2.ryy	.	.
.	8d-X/ 8A-X</ 8F</	.	.	.	.	.	.	.	.	.
.	8c/ 8G</ 8E</	.	.	.	.	.	.	.	.	.
.	8d-/ 8A-</ 8F</	.	.	.	.	.	.	.	.	.
.	8c/ 8G</ 8E</	.	.	.	.	.	.	.	.	.
.	8d-/J 8A-</ 8F</	.	.	.	.	.	.	.	.	.
=28	=28	=28	=28	=28	=28	=28	=28	=28	=28	=28
4C\ 4CC\	4B-X/ 4G</ 4E</	2.ryy	.	.	.	.	2.ryy	2.ryy	.	.
4r	4gg;\	.	.	.	.	.	.	.	.	.
.	16qqff\LL	.	.	.	.	.	.	.	.	.
.	16qqee\	.	.	.	.	.	.	.	.	.
.	16qqdd\	.	.	.	.	.	.	.	.	.
.	16qqcc\	.	.	.	.	.	.	.	.	.
.	16qqb-X\	.	.	.	.	.	.	.	.	.
.	16qqa\	.	.	.	.	.	.	.	.	.
.	16qqg\	.	.	.	.	.	.	.	.	.
.	16qqf\J	.	.	.	.	.	.	.	.	.
.	8qqe;\J	.	.	.	.	.	.	.	.	.
.	16qqg/LL	.	.	.	.	.	.	.	.	.
.	16qqb-/JJ	.	.	.	.	.	.	.	.	.
.	4qqdd-X\	.	.	.	.	.	.	.	.	.
.	4qqcc\	.	.	.	.	.	.	.	.	.
.	4qqbn\	.	.	.	.	.	.	.	.	.
4r;	8b-X/L	.	.	.	.	.	.	.	.	.
.	8g/J	.	.	.	.	.	.	.	.	.
==	==	==	==	==	==	==	==	==	==	==
*-	*-	*-	*-	*-	*-	*-	*-	*-	*-	*-
!!!system-decoration: [s1,s2,s3]{(s4,s5)}
!!!RDF**kern: > = above
!!!RDF**kern: < = below
!!!RDF**dynam: p = p.
!!!RDF**dynam: f = f.
!!!EED: Leszek Kubiak
!!!EST: 2021-04-22
!!!ENC: Krzysztof Stępień
!!!END: 2021-04-06
